z_dist/img/icons/crypto/tether-USDT.svg

<svg width="64" height="64" viewBox="0 0 64 64" fill="none" xmlns="http://www.w3.org/2000/svg">
<g clip-path="url(#clip0_233_552)">
<rect y="0.000488281" width="64" height="64" rx="4" fill="#1BA27A"/>
<path d="M47.0458 16.2046H16.8958V23.4834H28.3314V34.1819H35.6102V23.4834H47.0458V16.2046Z" fill="white"/>
<path d="M32.0399 35.3216C22.58 35.3216 14.9105 33.8244 14.9105 31.9773C14.9105 30.1306 22.5797 28.6331 32.0399 28.6331C41.4998 28.6331 49.169 30.1306 49.169 31.9773C49.169 33.8244 41.4998 35.3216 32.0399 35.3216ZM51.2733 32.5349C51.2733 30.1532 42.6623 28.2227 32.0399 28.2227C21.4178 28.2227 12.8062 30.1532 12.8062 32.5349C12.8062 34.6322 19.4835 36.3796 28.3317 36.7668V52.1249H35.6099V36.7729C44.5263 36.3978 51.2733 34.643 51.2733 32.5349Z" fill="white"/>
</g>
<defs>
<clipPath id="clip0_233_552">
<rect width="64" height="64" fill="white" transform="translate(0 0.000488281)"/>
</clipPath>
</defs>
</svg>

<svg width="64" height="64" fill="none" xmlns="http://www.w3.org/2000/svg"><g clip-path="url(#clip0_233_552)"><rect width="64" height="64" rx="4" fill="#1BA27A"/><path d="M47.046 16.205h-30.15v7.278H28.33v10.699h7.28V23.483h11.435v-7.278z" fill="#fff"/><path d="M32.04 35.322c-9.46 0-17.13-1.498-17.13-3.345 0-1.846 7.67-3.344 17.13-3.344 9.46 0 17.129 1.498 17.129 3.344 0 1.847-7.67 3.345-17.13 3.345zm19.233-2.787c0-2.382-8.61-4.312-19.233-4.312-10.622 0-19.234 1.93-19.234 4.312 0 2.097 6.678 3.845 15.526 4.232v15.358h7.278V36.773c8.916-.375 15.663-2.13 15.663-4.238z" fill="#fff"/></g><defs><clipPath id="clip0_233_552"><path fill="#fff" d="M0 0h64v64H0z"/></clipPath></defs></svg>
